suite-common/icons/assets/icons/ghost.svg

<svg xmlns="http://www.w3.org/2000/svg" xml:space="preserve" fill="none" viewBox="0 0 24 24">
  <path fill="#1B1A19" fill-rule="evenodd" d="M11.54 2.265A9.1 9.1 0 0 0 7.683 3.36c-2.173 1.186-3.8 3.28-4.397 5.66-.273 1.087-.261.804-.276 6.3-.01 3.67-.002 5.024.032 5.146.081.293.414.534.738.534.209 0 .407-.137 1.576-1.095.614-.503 1.132-.911 1.15-.908s.534.415 1.145.915c.611.499 1.185.949 1.276.998.18.098.38.111.582.037.071-.026.647-.47 1.28-.987.632-.517 1.177-.94 1.211-.94s.579.423 1.211.94 1.209.961 1.28.987a.69.69 0 0 0 .582-.037c.091-.049.672-.504 1.29-1.01.619-.506 1.134-.918 1.145-.915s.522.417 1.136.92 1.193.957 1.286 1.008c.317.175.685.072.94-.263l.11-.144v-5.043c0-5.624.011-5.371-.283-6.497a8.7 8.7 0 0 0-2.235-3.958c-1.457-1.507-3.31-2.434-5.362-2.684a13 13 0 0 0-1.56-.059m1.495 1.557A7.55 7.55 0 0 1 16.5 5.254c.411.308 1.178 1.075 1.486 1.486a7.5 7.5 0 0 1 1.493 4.004c.053.726.055 7.908.003 7.889a18 18 0 0 1-.759-.604 16 16 0 0 0-.865-.676c-.19-.112-.521-.115-.706-.006-.073.044-.644.497-1.268 1.007l-1.134.927-.185-.15c-.102-.082-.587-.48-1.079-.884-1.213-.996-1.189-.98-1.486-.98s-.278-.013-1.49.983c-.489.402-.973.799-1.075.881l-.185.15-1.134-.927c-.624-.51-1.195-.963-1.268-1.007-.185-.109-.516-.106-.706.006-.079.047-.468.351-.865.676s-.738.597-.759.604c-.053.019-.05-7.212.003-7.913a7.46 7.46 0 0 1 1.494-3.98C6.32 6.33 7.088 5.563 7.5 5.254a7.6 7.6 0 0 1 3.42-1.428c.521-.08 1.584-.082 2.115-.004m-4.06 6.003c-.358.127-.663.525-.719.939-.055.406.19.87.576 1.087.647.363 1.44.015 1.627-.716.133-.519-.095-1.007-.587-1.253a1.16 1.16 0 0 0-.897-.057m5.226.018c-.26.118-.426.256-.54.451-.459.783.148 1.764 1.047 1.695a1.12 1.12 0 0 0 .996-.818c.158-.542-.166-1.168-.696-1.349-.254-.086-.589-.078-.807.021"/>
</svg>

<svg xmlns="http://www.w3.org/2000/svg" xml:space="preserve" fill="none" viewBox="0 0 24 24"><path d="M11.540 2.265 C 10.181 2.342,8.862 2.716,7.683 3.360 C 5.510 4.546,3.883 6.640,3.286 9.020 C 3.013 10.107,3.025 9.824,3.010 15.320 C 3.000 18.990,3.008 20.344,3.042 20.466 C 3.123 20.759,3.456 21.000,3.780 21.000 C 3.989 21.000,4.187 20.863,5.356 19.905 C 5.970 19.402,6.488 18.994,6.506 18.997 C 6.525 19.001,7.040 19.412,7.651 19.912 C 8.262 20.411,8.836 20.861,8.927 20.910 C 9.107 21.008,9.307 21.021,9.509 20.947 C 9.580 20.921,10.156 20.477,10.789 19.960 C 11.421 19.443,11.966 19.020,12.000 19.020 C 12.034 19.020,12.579 19.443,13.211 19.960 C 13.844 20.477,14.420 20.921,14.491 20.947 C 14.693 21.021,14.893 21.008,15.073 20.910 C 15.164 20.861,15.745 20.406,16.363 19.900 C 16.982 19.394,17.497 18.982,17.508 18.985 C 17.519 18.988,18.030 19.402,18.644 19.905 C 19.258 20.408,19.837 20.862,19.930 20.913 C 20.247 21.088,20.615 20.985,20.870 20.650 L 20.980 20.506 20.980 15.463 C 20.980 9.839,20.991 10.092,20.697 8.966 C 20.301 7.447,19.570 6.152,18.462 5.008 C 17.005 3.501,15.152 2.574,13.100 2.324 C 12.722 2.278,11.879 2.246,11.540 2.265 M13.035 3.822 C 14.318 4.011,15.480 4.491,16.500 5.254 C 16.911 5.562,17.678 6.329,17.986 6.740 C 18.869 7.921,19.373 9.272,19.479 10.744 C 19.532 11.470,19.534 18.652,19.482 18.633 C 19.461 18.626,19.119 18.354,18.723 18.029 C 18.326 17.704,17.937 17.400,17.858 17.353 C 17.668 17.241,17.337 17.238,17.152 17.347 C 17.079 17.391,16.508 17.844,15.884 18.354 L 14.750 19.281 14.565 19.131 C 14.463 19.049,13.978 18.651,13.486 18.247 C 12.273 17.251,12.297 17.267,12.000 17.267 C 11.703 17.267,11.722 17.254,10.510 18.250 C 10.021 18.652,9.537 19.049,9.435 19.131 L 9.250 19.281 8.116 18.354 C 7.492 17.844,6.921 17.391,6.848 17.347 C 6.663 17.238,6.332 17.241,6.142 17.353 C 6.063 17.400,5.674 17.704,5.277 18.029 C 4.881 18.354,4.539 18.626,4.518 18.633 C 4.465 18.652,4.468 11.421,4.521 10.720 C 4.634 9.246,5.128 7.930,6.015 6.740 C 6.320 6.330,7.088 5.563,7.500 5.254 C 8.502 4.504,9.667 4.018,10.920 3.826 C 11.441 3.746,12.504 3.744,13.035 3.822 M8.975 9.825 C 8.617 9.952,8.312 10.350,8.256 10.764 C 8.201 11.170,8.446 11.634,8.832 11.851 C 9.479 12.214,10.272 11.866,10.459 11.135 C 10.592 10.616,10.364 10.128,9.872 9.882 C 9.593 9.743,9.266 9.722,8.975 9.825 M14.201 9.843 C 13.941 9.961,13.775 10.099,13.661 10.294 C 13.202 11.077,13.809 12.058,14.708 11.989 C 15.181 11.952,15.570 11.633,15.704 11.171 C 15.862 10.629,15.538 10.003,15.008 9.822 C 14.754 9.736,14.419 9.744,14.201 9.843 " fill="#1B1A19" stroke="none" fill-rule="evenodd"></path></svg>
